SVG_Azure_All/Application Service Clone App.svg

<?xml version="1.0" encoding="UTF-8" standalone="no"?>
<!-- Generated by Microsoft Visio, SVG Export Application Service Clone App.svg Page-1 -->

<svg
   xmlns:dc="http://purl.org/dc/elements/1.1/"
   xmlns:cc="http://creativecommons.org/ns#"
   xmlns:rdf="http://www.w3.org/1999/02/22-rdf-syntax-ns#"
   xmlns:svg="http://www.w3.org/2000/svg"
   xmlns="http://www.w3.org/2000/svg"
   xmlns:sodipodi="http://sodipodi.sourceforge.net/DTD/sodipodi-0.dtd"
   xmlns:inkscape="http://www.inkscape.org/namespaces/inkscape"
   width="0.72634822in"
   height="0.66920978in"
   viewBox="0 0 52.29707 48.182953"
   xml:space="preserve"
   class="st4"
   version="1.1"
   id="svg37"
   sodipodi:docname="Application Service Clone App.svg"
   style="font-size:12px;overflow:visible;color-interpolation-filters:sRGB;fill:none;fill-rule:evenodd;stroke-linecap:square;stroke-miterlimit:3"
   inkscape:version="0.92.5 (2060ec1f9f, 2020-04-08)"><metadata
   id="metadata43"><rdf:RDF><cc:Work
       rdf:about=""><dc:format>image/svg+xml</dc:format><dc:type
         rdf:resource="http://purl.org/dc/dcmitype/StillImage" /></cc:Work></rdf:RDF></metadata><defs
   id="defs41" /><sodipodi:namedview
   pagecolor="#ffffff"
   bordercolor="#666666"
   borderopacity="1"
   objecttolerance="10"
   gridtolerance="10"
   guidetolerance="10"
   inkscape:pageopacity="0"
   inkscape:pageshadow="2"
   inkscape:window-width="640"
   inkscape:window-height="480"
   id="namedview39"
   showgrid="false"
   inkscape:zoom="1.9651102"
   inkscape:cx="34.863528"
   inkscape:cy="14.691736"
   inkscape:window-x="0"
   inkscape:window-y="0"
   inkscape:window-maximized="0"
   inkscape:current-layer="svg37" />
	<style
   type="text/css"
   id="style2">
	<![CDATA[
		.st1 {fill:#59b4d9;stroke:none;stroke-linecap:butt;stroke-width:7.86632}
		.st2 {fill:#ffffff;stroke:none;stroke-linecap:butt;stroke-width:7.86632}
		.st3 {fill:#57a300;stroke:none;stroke-linecap:butt;stroke-width:7.86632}
		.st4 {fill:none;fill-rule:evenodd;font-size:12px;overflow:visible;stroke-linecap:square;stroke-miterlimit:3}
	]]>
	</style>

	<g
   id="g35"
   transform="translate(-7.8681045,-7.8713402)">
		<title
   id="title4">Page-1</title>
		<g
   id="group9276-1"
   transform="translate(5.66929,-34.0157)">
			<title
   id="title6">Application Service Clone App</title>
			<g
   id="group9277-2">
				<title
   id="title8">Sheet.9277</title>
				<g
   id="group9278-3"
   transform="translate(0,-14.2531)">
					<title
   id="title10">Sheet.9278</title>
					<g
   id="shape9279-4">
						<title
   id="title12">Sheet.9279</title>
						<path
   d="M 29.39,86.54 C 26.35,88.92 22.7,90.07 19.12,90.07 14.05,90.07 8.99,87.76 5.68,83.42 0,75.95 1.42,65.37 8.85,59.66 c 3.04,-2.37 6.69,-3.52 10.27,-3.52 5.07,0 10.14,2.3 13.45,6.65 5.61,7.46 4.26,18.05 -3.18,23.75 z"
   class="st1"
   id="path14"
   inkscape:connector-curvature="0"
   style="fill:#59b4d9;stroke:none;stroke-width:7.86632013;stroke-linecap:butt" />
					</g>
					<g
   id="shape9280-6"
   transform="translate(4.45975,-3.59721)">
						<title
   id="title17">Sheet.9280</title>
						<path
   d="m 21.83,79.69 c 1.21,1.63 3.51,1.9 5.06,0.68 0.07,-0.07 0.14,-0.14 0.21,-0.21 1.62,1.16 2.77,1.9 3.37,2.38 0.21,-0.48 0.34,-0.95 0.48,-1.43 -0.68,-0.47 -1.56,-1.22 -2.91,-2.31 0.41,-1.15 0.27,-2.44 -0.47,-3.53 -1.15,-1.49 -3.11,-1.83 -4.66,-0.95 -1.69,-1.56 -3.58,-3.32 -5.61,-5.29 6.22,-3.32 10.61,-2.85 10.61,-2.85 -0.75,-0.95 -1.56,-1.76 -2.44,-2.51 -2.63,-0.41 -6.68,-0.34 -11.28,2.1 -1.55,-1.63 -3.11,-3.39 -4.73,-5.22 -0.81,0.2 -1.55,0.54 -2.23,0.88 1.15,1.97 2.77,3.87 4.6,5.84 0,0 0,0 0,0 -1.49,1.01 -3.18,2.44 -4.67,4.07 -0.2,0.2 -0.4,0.41 -0.54,0.61 C 5.68,71.75 4.73,71.81 3.85,72.15 2.23,68.83 2.3,66.18 2.57,64.82 1.89,65.5 1.28,66.25 0.74,67.06 c -0.4,1.63 -0.54,4.01 0.68,6.86 -1.35,1.76 -1.42,4.34 0,6.24 0.13,0.14 0.27,0.27 0.4,0.41 -0.6,2.1 -0.87,4.21 -1.01,5.97 0.14,0.14 0.14,0.34 0.34,0.54 0.81,1.02 1.82,1.91 2.84,2.72 -0.14,-1.9 0,-4.62 1.15,-7.74 0.81,0.07 1.62,-0.07 2.36,-0.41 0.41,0.41 0.88,0.75 1.35,1.16 1.69,1.29 3.31,2.37 4.93,3.12 -0.06,0.82 0.14,1.7 0.68,2.38 1.15,1.49 3.24,1.76 4.73,0.61 0.34,-0.21 0.54,-0.55 0.74,-0.82 2.64,0.61 4.94,0.68 6.63,0.68 0.27,0 1.48,-1.63 2.16,-2.65 -1.02,0.21 -4.12,0.62 -8.31,-0.54 -0.14,-0.47 -0.27,-0.95 -0.61,-1.36 -1.08,-1.42 -3.04,-1.69 -4.46,-0.74 -1.49,-0.82 -2.97,-1.77 -4.6,-3.06 -0.33,-0.27 -0.6,-0.47 -0.94,-0.74 0.94,-1.5 1.08,-3.46 0.2,-5.16 0.2,-0.21 0.41,-0.41 0.61,-0.61 1.55,-1.5 3.04,-2.65 4.39,-3.6 -0.07,-0.07 -0.13,-0.14 -0.13,-0.14 0.06,0.07 0.13,0.14 0.13,0.14 0,0 0,0 0,0 2.1,1.97 4.33,3.8 6.49,5.5 -0.61,1.29 -0.54,2.71 0.34,3.87 z"
   class="st2"
   id="path19"
   inkscape:connector-curvature="0"
   style="fill:#ffffff;stroke:none;stroke-width:7.86632013;stroke-linecap:butt" />
					</g>
				</g>
				<g
   id="shape9281-8"
   transform="translate(18.5147)">
					<title
   id="title23">Sheet.9281</title>
					<path
   d="M 29.33,86.54 C 26.29,88.92 22.7,90.07 19.12,90.07 14.05,90.07 8.99,87.76 5.68,83.42 0,75.95 1.42,65.37 8.85,59.66 c 3.04,-2.37 6.62,-3.52 10.21,-3.52 5.06,0 10.13,2.3 13.44,6.65 5.68,7.46 4.26,18.12 -3.17,23.75 z"
   class="st3"
   id="path25"
   inkscape:connector-curvature="0"
   style="fill:#57a300;stroke:none;stroke-width:7.86632013;stroke-linecap:butt" />
				</g>
				<g
   id="shape9282-10"
   transform="translate(23.0421,-3.52933)">
					<title
   id="title28">Sheet.9282</title>
					<path
   d="m 21.69,79.62 c 1.22,1.63 3.51,1.9 5.07,0.68 l 0.2,-0.21 c 1.62,1.16 2.77,1.9 3.38,2.38 0.2,-0.48 0.34,-0.95 0.47,-1.43 -0.67,-0.47 -1.55,-1.22 -2.9,-2.3 0.4,-1.16 0.27,-2.45 -0.48,-3.53 -1.14,-1.5 -3.1,-1.84 -4.66,-0.95 -1.69,-1.56 -3.58,-3.33 -5.61,-5.3 6.22,-3.32 10.61,-2.85 10.61,-2.85 -0.74,-0.95 -1.55,-1.76 -2.43,-2.51 -2.64,-0.41 -6.69,-0.34 -11.29,2.11 -1.55,-1.63 -3.1,-3.4 -4.73,-5.23 -0.74,0.27 -1.48,0.54 -2.22,0.88 1.14,1.97 2.77,3.87 4.59,5.84 -1.49,1.02 -3.18,2.44 -4.66,4.07 -0.21,0.2 -0.41,0.41 -0.54,0.61 C 5.54,71.68 4.59,71.75 3.72,72.09 2.16,68.76 2.3,66.11 2.57,64.75 1.89,65.43 1.28,66.18 0.74,66.99 0.34,68.62 0.2,71 1.42,73.85 0.07,75.61 0,78.19 1.42,80.09 l 0.4,0.41 c -0.6,2.11 -0.87,4.21 -1.01,5.97 0.14,0.21 0.14,0.41 0.34,0.61 0.81,1.02 1.82,1.91 2.84,2.72 -0.14,-1.9 0,-4.62 1.15,-7.74 0.81,0.07 1.62,-0.07 2.36,-0.41 0.41,0.41 0.88,0.75 1.35,1.16 1.69,1.29 3.31,2.37 4.93,3.12 -0.06,0.82 0.14,1.7 0.68,2.38 1.15,1.49 3.24,1.76 4.73,0.61 0.34,-0.21 0.54,-0.55 0.74,-0.82 2.64,0.61 4.94,0.68 6.63,0.68 0.27,0 1.48,-1.63 2.16,-2.65 -1.02,0.21 -4.12,0.62 -8.31,-0.54 -0.14,-0.47 -0.27,-0.95 -0.61,-1.36 -1.08,-1.42 -3.04,-1.69 -4.46,-0.74 -1.49,-0.82 -2.97,-1.77 -4.6,-3.06 -0.33,-0.27 -0.6,-0.47 -0.94,-0.74 0.94,-1.5 1.08,-3.46 0.2,-5.09 l 0.61,-0.61 c 1.55,-1.5 3.04,-2.65 4.39,-3.6 L 14.87,70.25 15,70.39 c 2.1,1.97 4.33,3.8 6.49,5.5 -0.75,1.15 -0.61,2.57 0.2,3.73 z"
   class="st2"
   id="path30"
   inkscape:connector-curvature="0"
   style="fill:#ffffff;stroke:none;stroke-width:7.86632013;stroke-linecap:butt" />
				</g>
			</g>
		</g>
	</g>
</svg>

<?xml version="1.0" encoding="UTF-8" standalone="no"?>
<!DOCTYPE svg PUBLIC "-//W3C//DTD SVG 1.1//EN" "http://www.w3.org/Graphics/SVG/1.1/DTD/svg11.dtd">
<!-- Generated by Microsoft Visio, SVG Export Application Service Clone App.svg Page-1 -->
<svg xmlns="http://www.w3.org/2000/svg" xmlns:xlink="http://www.w3.org/1999/xlink" xmlns:ev="http://www.w3.org/2001/xml-events"
		width="0.944882in" height="1.25099in" viewBox="0 0 68.0315 90.071" xml:space="preserve" color-interpolation-filters="sRGB"
		class="st4">
	<style type="text/css">
	<![CDATA[
		.st1 {fill:#59b4d9;stroke:none;stroke-linecap:butt;stroke-width:7.86632}
		.st2 {fill:#ffffff;stroke:none;stroke-linecap:butt;stroke-width:7.86632}
		.st3 {fill:#57a300;stroke:none;stroke-linecap:butt;stroke-width:7.86632}
		.st4 {fill:none;fill-rule:evenodd;font-size:12px;overflow:visible;stroke-linecap:square;stroke-miterlimit:3}
	]]>
	</style>

	<g>
		<title>Page-1</title>
		<g id="group9081-1" transform="translate(5.66929,-34.0157)">
			<title>Application Service Clone App</title>
			<g id="group9082-2">
				<title>Sheet.9082</title>
				<g id="group9083-3" transform="translate(2.79776E-13,-14.2531)">
					<title>Sheet.9083</title>
					<g id="shape9084-4">
						<title>Sheet.9084</title>
						<path d="M29.39 86.54 C26.35 88.92 22.7 90.07 19.12 90.07 C14.05 90.07 8.99 87.76 5.68 83.42 C0 75.95 1.42
									 65.37 8.85 59.66 C11.89 57.29 15.54 56.14 19.12 56.14 C24.19 56.14 29.26 58.44 32.57 62.79 C38.18
									 70.25 36.83 80.84 29.39 86.54 Z" class="st1"/>
					</g>
					<g id="shape9085-6" transform="translate(4.45975,-3.59721)">
						<title>Sheet.9085</title>
						<path d="M21.83 79.69 C23.04 81.32 25.34 81.59 26.89 80.37 C26.96 80.3 27.03 80.23 27.1 80.16 C28.72 81.32
									 29.87 82.06 30.47 82.54 C30.68 82.06 30.81 81.59 30.95 81.11 C30.27 80.64 29.39 79.89 28.04
									 78.8 C28.45 77.65 28.31 76.36 27.57 75.27 C26.42 73.78 24.46 73.44 22.91 74.32 C21.22 72.76
									 19.33 71 17.3 69.03 C23.52 65.71 27.91 66.18 27.91 66.18 C27.16 65.23 26.35 64.42 25.47 63.67
									 C22.84 63.26 18.79 63.33 14.19 65.77 C12.64 64.14 11.08 62.38 9.46 60.55 C8.65 60.75 7.91 61.09
									 7.23 61.43 C8.38 63.4 10 65.3 11.83 67.27 C11.83 67.27 11.83 67.27 11.83 67.27 C10.34 68.28
									 8.65 69.71 7.16 71.34 C6.96 71.54 6.76 71.75 6.62 71.95 C5.68 71.75 4.73 71.81 3.85 72.15 C2.23
									 68.83 2.3 66.18 2.57 64.82 C1.89 65.5 1.28 66.25 0.74 67.06 C0.34 68.69 0.2 71.07 1.42 73.92
									 C0.07 75.68 0 78.26 1.42 80.16 C1.55 80.3 1.69 80.43 1.82 80.57 C1.22 82.67 0.95 84.78 0.81
									 86.54 C0.95 86.68 0.95 86.88 1.15 87.08 C1.96 88.1 2.97 88.99 3.99 89.8 C3.85 87.9 3.99 85.18
									 5.14 82.06 C5.95 82.13 6.76 81.99 7.5 81.65 C7.91 82.06 8.38 82.4 8.85 82.81 C10.54 84.1 12.16
									 85.18 13.78 85.93 C13.72 86.75 13.92 87.63 14.46 88.31 C15.61 89.8 17.7 90.07 19.19 88.92 C19.53
									 88.71 19.73 88.37 19.93 88.1 C22.57 88.71 24.87 88.78 26.56 88.78 C26.83 88.78 28.04 87.15 28.72
									 86.13 C27.7 86.34 24.6 86.75 20.41 85.59 C20.27 85.12 20.14 84.64 19.8 84.23 C18.72 82.81 16.76
									 82.54 15.34 83.49 C13.85 82.67 12.37 81.72 10.74 80.43 C10.41 80.16 10.14 79.96 9.8 79.69 C10.74
									 78.19 10.88 76.23 10 74.53 C10.2 74.32 10.41 74.12 10.61 73.92 C12.16 72.42 13.65 71.27 15 70.32
									 C14.93 70.25 14.87 70.18 14.87 70.18 C14.93 70.25 15 70.32 15 70.32 C15 70.32 15 70.32 15 70.32
									 C17.1 72.29 19.33 74.12 21.49 75.82 C20.88 77.11 20.95 78.53 21.83 79.69 Z" class="st2"/>
					</g>
				</g>
				<g id="shape9086-8" transform="translate(18.5147,1.42109E-14)">
					<title>Sheet.9086</title>
					<path d="M29.33 86.54 C26.29 88.92 22.7 90.07 19.12 90.07 C14.05 90.07 8.99 87.76 5.68 83.42 C0 75.95 1.42 65.37
								 8.85 59.66 C11.89 57.29 15.47 56.14 19.06 56.14 C24.12 56.14 29.19 58.44 32.5 62.79 C38.18 70.25
								 36.76 80.91 29.33 86.54 Z" class="st3"/>
				</g>
				<g id="shape9087-10" transform="translate(23.0421,-3.52933)">
					<title>Sheet.9087</title>
					<path d="M21.69 79.62 C22.91 81.25 25.2 81.52 26.76 80.3 L26.96 80.09 C28.58 81.25 29.73 81.99 30.34 82.47 C30.54
								 81.99 30.68 81.52 30.81 81.04 C30.14 80.57 29.26 79.82 27.91 78.74 C28.31 77.58 28.18 76.29 27.43
								 75.21 C26.29 73.71 24.33 73.37 22.77 74.26 C21.08 72.7 19.19 70.93 17.16 68.96 C23.38 65.64 27.77
								 66.11 27.77 66.11 C27.03 65.16 26.22 64.35 25.34 63.6 C22.7 63.19 18.65 63.26 14.05 65.71 C12.5
								 64.08 10.95 62.31 9.32 60.48 C8.58 60.75 7.84 61.02 7.1 61.36 C8.24 63.33 9.87 65.23 11.69 67.2
								 C10.2 68.22 8.51 69.64 7.03 71.27 C6.82 71.47 6.62 71.68 6.49 71.88 C5.54 71.68 4.59 71.75 3.72
								 72.09 C2.16 68.76 2.3 66.11 2.57 64.75 C1.89 65.43 1.28 66.18 0.74 66.99 C0.34 68.62 0.2 71 1.42
								 73.85 C0.07 75.61 0 78.19 1.42 80.09 L1.82 80.5 C1.22 82.61 0.95 84.71 0.81 86.47 C0.95 86.68 0.95
								 86.88 1.15 87.08 C1.96 88.1 2.97 88.99 3.99 89.8 C3.85 87.9 3.99 85.18 5.14 82.06 C5.95 82.13 6.76
								 81.99 7.5 81.65 C7.91 82.06 8.38 82.4 8.85 82.81 C10.54 84.1 12.16 85.18 13.78 85.93 C13.72 86.75
								 13.92 87.63 14.46 88.31 C15.61 89.8 17.7 90.07 19.19 88.92 C19.53 88.71 19.73 88.37 19.93 88.1 C22.57
								 88.71 24.87 88.78 26.56 88.78 C26.83 88.78 28.04 87.15 28.72 86.13 C27.7 86.34 24.6 86.75 20.41
								 85.59 C20.27 85.12 20.14 84.64 19.8 84.23 C18.72 82.81 16.76 82.54 15.34 83.49 C13.85 82.67 12.37
								 81.72 10.74 80.43 C10.41 80.16 10.14 79.96 9.8 79.69 C10.74 78.19 10.88 76.23 10 74.6 L10.61 73.99
								 C12.16 72.49 13.65 71.34 15 70.39 L14.87 70.25 L15 70.39 C17.1 72.36 19.33 74.19 21.49 75.89 C20.74
								 77.04 20.88 78.46 21.69 79.62 Z" class="st2"/>
				</g>
			</g>
		</g>
	</g>
</svg>
